client/public/assets/curriculum/cur-topic-practices.svg

<svg viewBox="0 0 60 60" fill="none" xmlns="http://www.w3.org/2000/svg">
  <circle cx="30" cy="30" r="30" fill="white" />
  <path
    d="M35.9599 28.4207C35.7667 28.605 35.4628 28.605 35.2696 28.4207L31.4087 24.7367C31.2023 24.5398 31.2023 24.2102 31.4087 24.0133L32.5185 22.9543C32.7117 22.77 33.0157 22.77 33.2088 22.9543L35.2696 24.9207C35.4628 25.105 35.7667 25.105 35.9599 24.9207L40.7718 20.3293C40.965 20.145 41.2689 20.145 41.4621 20.3293L42.5719 21.3883C42.7783 21.5852 42.7783 21.9148 42.5719 22.1117L35.9599 28.4207ZM28.4095 24.25C28.4095 23.9739 28.1857 23.75 27.9095 23.75H17.1191C16.843 23.75 16.6191 23.9739 16.6191 24.25V25.75C16.6191 26.0261 16.843 26.25 17.1191 26.25H27.9095C28.1857 26.25 28.4095 26.0261 28.4095 25.75V24.25ZM41.1308 32.1117C41.3373 31.9148 41.3373 31.5852 41.1308 31.3883L40.0211 30.3293C39.8279 30.145 39.5239 30.145 39.3307 30.3293L36.615 32.9207C36.4218 33.105 36.1178 33.105 35.9246 32.9207L33.2088 30.3293C33.0157 30.145 32.7117 30.145 32.5185 30.3293L31.4087 31.3883C31.2023 31.5852 31.2023 31.9148 31.4087 32.1117L34.0566 34.6383C34.2631 34.8352 34.2631 35.1648 34.0566 35.3617L31.4087 37.8883C31.2023 38.0852 31.2023 38.4148 31.4087 38.6117L32.5185 39.6707C32.7117 39.855 33.0157 39.855 33.2088 39.6707L35.9246 37.0793C36.1178 36.895 36.4218 36.895 36.615 37.0793L39.3307 39.6707C39.5239 39.855 39.8279 39.855 40.0211 39.6707L41.1308 38.6117C41.3373 38.4148 41.3373 38.0852 41.1308 37.8883L38.483 35.3617C38.2765 35.1648 38.2765 34.8352 38.483 34.6383L41.1308 32.1117ZM28.4095 34.25C28.4095 33.9739 28.1857 33.75 27.9095 33.75H17.1191C16.843 33.75 16.6191 33.9739 16.6191 34.25V35.75C16.6191 36.0261 16.843 36.25 17.1191 36.25H27.9095C28.1857 36.25 28.4095 36.0261 28.4095 35.75V34.25Z"
    fill="#356A1C" />
</svg>

<svg xmlns="http://www.w3.org/2000/svg" fill="none" viewBox="0 0 60 60">
  <circle cx="30" cy="30" r="30" fill="#fff" />
  <path fill="#356A1C"
    d="M35.96 28.42a.5.5 0 0 1-.69 0l-3.861-3.683a.5.5 0 0 1 0-.724l1.11-1.059a.5.5 0 0 1 .69 0l2.06 1.967a.5.5 0 0 0 .69 0l4.813-4.592a.5.5 0 0 1 .69 0l1.11 1.06a.5.5 0 0 1 0 .723zm-7.55-4.17a.5.5 0 0 0-.5-.5H17.12a.5.5 0 0 0-.5.5v1.5a.5.5 0 0 0 .5.5h10.79a.5.5 0 0 0 .5-.5zm12.72 7.862a.5.5 0 0 0 0-.724l-1.109-1.059a.5.5 0 0 0-.69 0l-2.716 2.592a.5.5 0 0 1-.69 0l-2.716-2.592a.5.5 0 0 0-.69 0l-1.11 1.06a.5.5 0 0 0 0 .723l2.648 2.526a.5.5 0 0 1 0 .724l-2.648 2.526a.5.5 0 0 0 0 .724l1.11 1.059a.5.5 0 0 0 .69 0l2.716-2.592a.5.5 0 0 1 .69 0l2.716 2.592a.5.5 0 0 0 .69 0l1.11-1.06a.5.5 0 0 0 0-.723l-2.648-2.526a.5.5 0 0 1 0-.724zM28.41 34.25a.5.5 0 0 0-.5-.5H17.12a.5.5 0 0 0-.5.5v1.5a.5.5 0 0 0 .5.5h10.79a.5.5 0 0 0 .5-.5z" />
</svg>
